fs/clipboard_settings_24_regular.svg

<svg viewBox="0 0 24 24" fill="none" xmlns="http://www.w3.org/2000/svg" height="1em" width="1em">
  <path d="M13.75 2C14.908 2 15.8617 2.87478 15.9862 3.99956L17.75 4C18.9926 4 20 5.00736 20 6.25V11.4982C19.5258 11.3004 19.0232 11.1572 18.5 11.0764V6.25C18.5 5.83579 18.1642 5.5 17.75 5.5L15.621 5.5002C15.2173 6.1031 14.53 6.5 13.75 6.5H10.25C9.46998 6.5 8.78267 6.10308 8.37902 5.5002L6.25 5.5C5.83579 5.5 5.5 5.83579 5.5 6.25V19.75C5.5 20.1642 5.83579 20.5 6.25 20.5H11.7322C12.0194 21.051 12.3832 21.5557 12.8096 22H6.25C5.00736 22 4 20.9926 4 19.75V6.25C4 5.00736 5.00736 4 6.25 4L8.01379 3.99944C8.13841 2.87472 9.09205 2 10.25 2H13.75ZM15.9895 4.03161C15.9885 4.0209 15.9874 4.01022 15.9862 3.99956L15.9895 4.03161ZM15.9948 4.09595L16 4.25C16 4.19402 15.998 4.13852 15.9939 4.08357L15.9948 4.09595ZM13.75 3.5H10.25C9.83579 3.5 9.5 3.83579 9.5 4.25C9.5 4.66421 9.83579 5 10.25 5H13.75C14.1642 5 14.5 4.66421 14.5 4.25C14.5 3.83579 14.1642 3.5 13.75 3.5ZM14.2782 13.9756C14.5929 15.0658 13.9385 16.1992 12.837 16.4718L12.2528 16.6163C12.2079 16.904 12.1845 17.1992 12.1845 17.5C12.1845 17.8147 12.2101 18.1232 12.2591 18.4234L12.7986 18.5533C13.9111 18.8213 14.5724 19.9663 14.2486 21.0638L14.0623 21.6951C14.5014 22.0807 15.0019 22.3939 15.5464 22.6166L16.0397 22.0979C16.8283 21.2687 18.1505 21.2689 18.9388 22.0984L19.4375 22.6232C19.9811 22.4029 20.481 22.0927 20.9203 21.7103L20.7223 21.0244C20.4075 19.9341 21.0619 18.8007 22.1635 18.5281L22.7472 18.3837C22.7921 18.096 22.8155 17.8008 22.8155 17.5C22.8155 17.1853 22.7899 16.8767 22.7408 16.5764L22.2019 16.4466C21.0894 16.1787 20.428 15.0337 20.7519 13.9361L20.9381 13.3053C20.4989 12.9195 19.9984 12.6063 19.4539 12.3835L18.9608 12.902C18.1722 13.7313 16.8499 13.731 16.0617 12.9015L15.5629 12.3767C15.0193 12.5969 14.5193 12.907 14.0801 13.2894L14.2782 13.9756ZM17.5 19C16.6994 19 16.0503 18.3284 16.0503 17.5C16.0503 16.6716 16.6994 16 17.5 16C18.3006 16 18.9497 16.6716 18.9497 17.5C18.9497 18.3284 18.3006 19 17.5 19Z" fill="#212121"/>
</svg>

<svg viewBox="0 0 24 24" fill="none" xmlns="http://www.w3.org/2000/svg" height="1em" width="1em">
  <path d="M13.75 2a2.25 2.25 0 0 1 2.236 2h1.764A2.25 2.25 0 0 1 20 6.25v5.248a6.452 6.452 0 0 0-1.5-.422V6.25a.75.75 0 0 0-.75-.75h-2.129c-.404.603-1.091 1-1.871 1h-3.5c-.78 0-1.467-.397-1.871-1H6.25a.75.75 0 0 0-.75.75v13.5c0 .414.336.75.75.75h5.482A6.518 6.518 0 0 0 12.81 22H6.25A2.25 2.25 0 0 1 4 19.75V6.25A2.25 2.25 0 0 1 6.25 4h1.764a2.25 2.25 0 0 1 2.236-2h3.5Zm2.24 2.032A1.696 1.696 0 0 0 15.986 4l.003.032Zm.005.064L16 4.25c0-.056-.002-.111-.006-.166v.012ZM13.75 3.5h-3.5a.75.75 0 0 0 0 1.5h3.5a.75.75 0 0 0 0-1.5Zm.528 10.476a2 2 0 0 1-1.441 2.496l-.584.144a5.729 5.729 0 0 0 .006 1.807l.54.13a2 2 0 0 1 1.45 2.51l-.187.632c.44.386.94.699 1.484.922l.494-.52a2 2 0 0 1 2.899.001l.498.525a5.28 5.28 0 0 0 1.483-.913l-.198-.686a2 2 0 0 1 1.441-2.496l.584-.144a5.729 5.729 0 0 0-.006-1.808l-.54-.13a2 2 0 0 1-1.45-2.51l.187-.63a5.28 5.28 0 0 0-1.484-.922l-.493.518a2 2 0 0 1-2.9 0l-.498-.525c-.544.22-1.044.53-1.483.912l.198.687ZM17.5 19c-.8 0-1.45-.672-1.45-1.5S16.7 16 17.5 16c.8 0 1.45.672 1.45 1.5S18.3 19 17.5 19Z" fill="#212121"/>
</svg>
